X: 16052
T: What shou'd a Lassie do wi an auld Man
%R: jig
B: James Oswald "The Caledonian Pocket Companion" v.1 b.6 p.5 #2
S: https://ia800501.us.archive.org/18/items/caledonianpocket01rugg/caledonianpocket01rugg_bw.pdf
Z: 2020 John Chambers <jc:trillian.mit.edu>
M: 6/8
L: 1/8
K: Em
"_Brisk"B |\
efe gab | abg Tf>ed |\
efe gab | dBB B2 :: d |\
(BG)F (BA)A | (dB)B B(e/f/)g |
(BG)G (BA)A | (dB)B e2d |\
(BG)G (BA)A | (dB)B g2a |\
(ba)g (fba) | (ge)e e2 :|


